!!!COM: Joplin, Scott
!!!CDT: 1868/11/24/-1917/04/01/
!!!OTL: Bethena
!!!ONB: Ragtime Waltz
!!!PDT: 1905///
!! ODT is estimate:
!!!ODT: 1905///
**kern	**kern	**dynam
*staff2	*staff1	*staff1/2
*Ipiano	*Ipiano	*Ipiano
*>[A,B,B1,B,B2,C,D,D1,D,D2,F,G,G1,G,G2,H,H1,H,H2,I]	*>[A,B,B1,B,B2,C,D,D1,D,D2,F,G,G1,G,G2,H,H1,H,H2,I]	*>[A,B,B1,B,B2,C,D,D1,D,D2,F,G,G1,G,G2,H,H1,H,H2,I]
*>A	*>A	*>A
*clefF4	*clefG2	*clefG2
*k[f#]	*k[f#]	*k[f#]
*M3/4	*M3/4	*M3/4
*MM144	*MM144	*MM144
=1-	=1-	=1-
2.r	8aa\	mp
.	4gg\	.
.	8bb\	.
.	4aa\	.
=2	=2	=2
2.r	8a/	.
.	4g/	.
.	8b\	.
.	4a/	.
=3	=3	=3
8A\	2.r	.
4G\	.	.
8B\	.	.
4A\	.	.
=4	=4	=4
8AA/	2.r	.
4GG/	.	.
8BB/	.	.
4AA/	.	.
=5	=5	=5
8AA/	2.G/ 2.c/ 2.e/	.
4GG/	.	.
8BB/	.	.
4AA/	.	.
=6	=6	=6
8AA/	2.G/ 2.c/ 2.e-/	.
4C/	.	.
8BB/	.	.
4AA/	.	.
=7	=7	=7
2.D\	2.F#/ 2.c/ 2.d/	.
=8	=8	=8
2.DD/ 2.D/	2.c/ 2.f#/ 2.a/	.
=9	=9	=9
*	*^	*
4GG/	8a/	2.B\ 2.d\	.
.	4g/	.	mp
4D\ 4G\	.	.	.
.	8b/	.	.
4D\ 4G\	4a/	.	.
=10	=10	=10	=10
4EE/ 4E/	8a/	2.c#\ 2.g\	.
.	4g/	.	.
4E\ 4G\ 4A\	.	.	.
.	8b/	.	.
4E\ 4G\ 4A\	4a/	.	.
=11	=11	=11	=11
*^	*	*	*
4r	2DD\ 2D\	8a/	2c\ 2f#\	.
.	.	4cc/	.	.
4F#/ 4A/	.	.	.	.
.	.	8b/	.	.
4r	4DD#\ 4D#\	4a/	4c\ 4f#\	.
*v	*v	*	*	*
=12	=12	=12	=12
4EE/ 4E/	2.g/	2.B\ 2.e\	.
4E\ 4G\	.	.	.
4E\ 4G\	.	.	.
=13	=13	=13	=13
4CC/ 4C/	8ee/	2cc\	.
.	4aa/	.	.
4E\ 4G\ 4c\	.	.	.
.	8ee/	.	.
4E\ 4G\ 4c\	4gg/	4cc\	.
=14	=14	=14	=14
4DD/ 4D/	8b/	2g\	.
.	4ee/	.	.
4D\ 4G\ 4B\	.	.	.
.	8b/	.	.
4D\ 4G\ 4B\	4dd/	4g\ 4b\	.
=15	=15	=15	=15
4AAA/ 4AA/	8g/	2c#\	.
.	4b/	.	.
4E\ 4G\ 4A\	.	.	.
.	8g/	.	.
4AAA/ 4AA/	4b/	4c#\ 4g\	.
=16	=16	=16	=16
*^	*	*	*
4r	2.DD\ 2.D\	2.a/	2.c\ 2.f#\	.
4D/ 4F#/ 4A/	.	.	.	.
4D/ 4F#/ 4A/	.	.	.	.
*v	*v	*	*	*
=17	=17	=17	=17
4GG/	8a/	2.B\ 2.d\	.
.	4g/	.	.
4D\ 4G\	.	.	.
.	8b/	.	.
4D\ 4G\	4a/	.	.
=18	=18	=18	=18
4EE/ 4E/	8a/	2.c#\ 2.g\	.
.	4g/	.	.
4E\ 4G\ 4A\	.	.	.
.	8b/	.	.
4E\ 4G\ 4A\	4a/	.	.
=19	=19	=19	=19
*^	*	*	*
4r	2DD\ 2D\	8a/	2c\ 2f#\	.
.	.	4cc/	.	.
4F#/ 4A/	.	.	.	.
.	.	8b/	.	.
4r	4DD#\ 4D#\	4a/	4c\ 4f#\	.
*v	*v	*	*	*
=20	=20	=20	=20
4EE/ 4E/	2.g/	2.B\ 2.e\	.
4E\ 4G\	.	.	.
4E\ 4G\	.	.	.
=21	=21	=21	=21
4CC/ 4C/	8ee/	2cc\	.
.	4aa/	.	.
4E\ 4G\ 4c\	.	.	.
.	8ee/	.	.
4E\ 4G\ 4c\	4gg/	4cc\	.
=22	=22	=22	=22
4DD/ 4D/	8b/	2g\	.
.	4ee/	.	.
4D\ 4G\ 4B\	.	.	.
.	8b/	.	.
4D\ 4G\ 4B\	(8dd/L	4r	.
.	8d/J)	.	.
=23	=23	=23	=23
4EE/ 4E/	(8c#/	4.c#\	.
.	4g/ 4b/)	.	.
4AAA/ 4AA/	.	.	.
.	8cn/	(8cn\	.
4DD/ 4D/	4f#/ 4a/)	4c\	.
=24	=24	=24	=24
2.GG/ 2.G/	(2g/	2.B\ 2.d\	.
.	4b/)	.	.
=25	=25	=25	=25
2FF#/ (2F#/	(4b/	2.B\ 2.d#\	.
.	2a/)	.	.
&(4FFn/&) 4Fn/)	.	.	.
=26	=26	=26	=26
2EE/ (2E/	2.c#/ 2.g/	(2B-\	.
&(4EE-/&) 4E-/)	.	4A\)	.
*	*v	*v	*
=27	=27	=27
*	*^	*
*	*	*^	*
2DD/ (2D/	(4f#/	2d\	2.A/	.
*	*	*v	*v	*
.	2fn/)	.	.
&(4CC/&) 4C/)	.	&(4e-\&)	.
=28	=28	=28	=28
2.FFFn/ 2.FFn/	2.ffn/	2.e-\ 2.a\ 2.cc\	.
*	*v	*v	*
=29!|:	=29!|:	=29!|:
*>B	*>B	*>B
*k[b-e-]	*k[b-e-]	*k[b-e-]
4BBB-/ 4BB-/	8d/ 8b-/ 8dd/	f
.	4g\ 4gg\	.
8F\ 8B-\ 8d\L	.	.
8FF\ 8F\J	8f\ 8ff\	.
8EEn/ 8En/L	8g\ 8gg\L	.
8EE-/ 8E-/J	8a\ 8aa\J	.
=30	=30	=30
*	*^	*
4DD/ 4D/	2.b-/ 2.bb-/	4r	.
4F\ 4B-\ 4d\	.	4dd\ 4ff\	.
4F\ 4B-\ 4d\	.	4dd\ 4ff\	.
*	*v	*v	*
=31	=31	=31
4FF/ 4F/	8dd\ 8ddd\	.
.	4cc\ 4ccc\	.
8F\ 8A\ 8e-\L	.	.
8FF\ 8F\J	8ff\ 8fff\	.
8GG\ 8G\L	8een\ 8eeen\L	.
8AA\ 8A\J	8ee-\ 8eee-\J	.
=32	=32	=32
*	*^	*
4BB-\ 4B-\	2.dd/ 2.ddd/	4r	.
4F\ 4B-\ 4d\	.	4ff\ 4bb-\	.
4F\ 4B-\ 4d\	.	4ff\ 4bb-\	.
*	*v	*v	*
=33	=33	=33
4EE-/ 4E-/	8b-\ 8bb-\	.
.	4ee-\ 4gg\	.
4G\ 4B-\ 4e-\	.	.
.	8b-\ 8bb-\	.
4EEn/ 4En/	4b-\ 4cc#\ 4gg\	.
=34	=34	=34
4FF/ 4F/	8b-\ 8dd\ 8gg\	.
.	4b-\ 4dd\ 4ff\	.
4F\ 4B-\ 4d\	.	.
.	8b-\ 8dd\ 8gg\	.
4GG/ 4G/	4f/ 4bn/ 4dd/	.
=35	=35	=35
*	*^	*
4CC/ 4C/	8dd/	2e-\ 2b-\	.
.	4b-/	.	.
4GG/ 4G/	.	.	.
.	8dd/	.	.
4GG-/ 4G-/	4cc/	4e-\ 4b-\	.
=36	=36	=36	=36
4FF/ 4F/	2.a/ 2.cc/	2.e-\	.
4A\ 4c\	.	.	.
4A\ 4c\	.	.	.
*	*v	*v	*
=37	=37	=37
4BBB-/ 4BB-/	8d/ 8b-/ 8dd/	.
.	4g\ 4gg\	.
8F\ 8B-\ 8d\L	.	.
8FF\ 8F\J	8f\ 8ff\	.
8EEn/ 8En/L	8g\ 8gg\L	.
8EE-/ 8E-/J	8a\ 8aa\J	.
=38	=38	=38
*	*^	*
4DD/ 4D/	2.b-/ 2.bb-/	4r	.
4F\ 4B-\ 4d\	.	4dd\ 4ff\	.
4F\ 4B-\ 4d\	.	4dd\ 4ff\	.
*	*v	*v	*
=39	=39	=39
4FF/ 4F/	8dd\ 8ddd\	.
.	4cc\ 4ccc\	.
8F\ 8A\ 8e-\L	.	.
8FF\ 8F\J	8ff\ 8fff\	.
8GG\ 8G\L	8een\ 8eeen\L	.
8AA\ 8A\J	8ee-\ 8eee-\J	.
=40	=40	=40
*	*^	*
4BB-\ 4B-\	2.dd/ 2.ddd/	4r	.
4F\ 4B-\ 4d\	.	4ff\ 4bb-\	.
4F\ 4B-\ 4d\	.	4ff\ 4bb-\	.
*	*v	*v	*
=41	=41	=41
4EE-/ 4E-/	8b-\ 8bb-\	.
.	4ee-\ 4gg\	.
4G\ 4B-\ 4e-\	.	.
.	8b-\ 8bb-\	.
4EEn/ 4En/	4b-\ 4cc#\ 4gg\	.
=42	=42	=42
4FF/ 4F/	8b-\ 8dd\ 8gg\	.
.	4b-\ 4dd\ 4ff\	.
4F\ 4B-\ 4d\	.	.
.	8b-\ 8dd\ 8gg\	.
4GG/ 4G/	4f/ 4bn/ 4dd/	.
=43	=43	=43
*	*^	*
4CC/ 4C/	8dd/	2e-\ 2b-\	.
.	4b-/	.	.
4G\ 4B-\ 4c\	.	.	.
.	8dd/	.	.
4FF/ 4F/	4cc/	4e-\ 4b-\	.
*	*v	*v	*
=44	=44	=44
*>B1	*>B1	*>B1
4BB-\ 4B-\	4d/ 4f/ 4b-/	.
4r	8f/L	.
.	8b-/	.
4r	8cc/	.
.	8cc#/J	.
=45:|!	=45:|!	=45:|!
*>B2	*>B2	*>B2
4BB-\ 4B-\	4d/ 4f/ 4b-/	.
8A\L	8a/L	.
8A-\J	8a-/J	.
4G\	4g/	.
=46	=46	=46
*>C	*>C	*>C
8G-\	8g-/	.
4F\	4f/	.
8En\	8en/	.
4E-\	4e-/	.
=47	=47	=47
4D\	4d/	.
4r	4g/ 4b-/ 4dd/	.
4r	4f#/ 4a/ 4dd/	.
=48	=48	=48
2.r	4f/ 4a-/ 4dd/	.
.	4en/ 4g/ 4cc#/	.
.	4e-/ 4g-/ 4ccn/	.
=49	=49	=49
4DD/ 4D/	4d/ 4f/ 4g#/ 4bn/	<
4DD/ 4D/	4d/ 4f/ 4g#/ 4b/	.
4DD/ 4D/	4d/ 4f/ 4g#/ 4b/	.
=50	=50	=50
2EEn/ 2En/	2c#/ 2g/ 2b-/	f
4EE-/ 4E-/	4cn/ 4g/ 4a/	.
=51	=51	=51
2DD/ 2D/	[2.c/ [2.f#/ [2.a/	.
4AA/	.	.
=52	=52	=52
2.DD/	2.c/] 2.f#/] 2.a/]	>
=53	=53	=53
*k[f#]	*k[f#]	*k[f#]
*	*^	*
4GG/	8a/	2.B\ 2.d\	mp
.	4g/	.	.
4D\ 4G\	.	.	.
.	8b/	.	.
4D\ 4G\	4a/	.	.
=54	=54	=54	=54
4EE/ 4E/	8a/	2.c#\ 2.g\	.
.	4g/	.	.
4E\ 4G\ 4A\	.	.	.
.	8b/	.	.
4E\ 4G\ 4A\	4a/	.	.
=55	=55	=55	=55
*^	*	*	*
4r	2DD\ 2D\	8a/	2c\ 2f#\	.
.	.	4cc/	.	.
4F#/ 4A/	.	.	.	.
.	.	8b/	.	.
4r	4DD#\ 4D#\	4a/	4c\ 4f#\	.
*v	*v	*	*	*
=56	=56	=56	=56
4EE/ 4E/	2.g/	2.B\ 2.e\	.
4E\ 4G\	.	.	.
4E\ 4G\	.	.	.
=57	=57	=57	=57
4CC/ 4C/	8ee/	2cc\	.
.	4aa/	.	.
4E\ 4G\ 4c\	.	.	.
.	8ee/	.	.
4E\ 4G\ 4c\	4gg/	4cc\	.
=58	=58	=58	=58
4DD/ 4D/	8b/	2g\	.
.	4ee/	.	.
4D\ 4G\ 4B\	.	.	.
.	8b/	.	.
4D\ 4G\ 4B\	4dd/	4g\ 4b\	.
=59	=59	=59	=59
4AAA/ 4AA/	8g/	2c#\	.
.	4b/	.	.
4E\ 4G\ 4A\	.	.	.
.	8g/	.	.
4AAA/ 4AA/	4b/	4c#\ 4g\	.
=60	=60	=60	=60
*^	*	*	*
4r	2.DD\ 2.D\	2.f#/ 2.a/	2.c\	.
4D/ 4F#/ 4A/	.	.	.	.
4D/ 4F#/ 4A/	.	.	.	.
*v	*v	*	*	*
=61	=61	=61	=61
4GG/	8a/	2.B\ 2.d\	.
.	4g/	.	.
4D\ 4G\	.	.	.
.	8b/	.	.
4D\ 4G\	4a/	.	.
=62	=62	=62	=62
4EE/ 4E/	8a/	2.c#\ 2.g\	.
.	4g/	.	.
4E\ 4G\ 4A\	.	.	.
.	8b/	.	.
4E\ 4G\ 4A\	4a/	.	.
=63	=63	=63	=63
*^	*	*	*
4r	2DD\ 2D\	8a/	2c\ 2f#\	.
.	.	4cc/	.	.
4F#/ 4A/	.	.	.	.
.	.	8b/	.	.
4r	4DD#\ 4D#\	4a/	4c\ 4f#\	.
*v	*v	*	*	*
=64	=64	=64	=64
4EE/ 4E/	2.e/ 2.g/	2.B\	.
4E\ 4G\	.	.	.
4E\ 4G\	.	.	.
=65	=65	=65	=65
4CC/ 4C/	8ee/	2cc\	.
.	4aa/	.	.
4E\ 4G\ 4c\	.	.	.
.	8ee/	.	.
4E\ 4G\ 4c\	4gg/	4cc\	.
=66	=66	=66	=66
4DD/ 4D/	8b/	2g\	.
.	4ee/	.	.
4D\ 4G\ 4B\	.	.	.
.	8b/	.	.
4D\ 4G\ 4B\	(8dd/L	4r	.
.	8d/J)	.	.
=67	=67	=67	=67
4EE/ 4E/	8c#/	(4.c#\	.
.	4g/ 4b/)	.	.
4AAA/ 4AA/	.	.	.
.	8cn/	(8cn\	.
4DD/ 4D/	4f#/ 4a/)	4c\	.
=68	=68	=68	=68
4GG/ 4G/	2.g/	2.B\ 2.d\	.
4D\	.	.	.
4GG/	.	.	.
=69	=69	=69	=69
2.Fn\ 2.B\ 2.d\	4r	2.g\	f
.	(8gg/L	.	.
.	8ddd/	.	.
.	8ccc/	.	.
.	8bb/J)	.	.
=70	=70	=70	=70
2.E\ 2.B\ 2.d\	4r	2.g#\	.
.	(8ee/L	.	.
.	8bb/	.	.
.	8aa/	.	.
.	8gg#/J)	.	.
=71	=71	=71	=71
2.D#\ 2.B\ 2.d#\	4r	2.g#\	.
.	(8dd#/L	.	.
.	8gg#/	.	.
.	8aa#/	.	.
.	8bb/J)	.	.
=72	=72	=72	=72
2.D\ 2.B\	4r	2.e\ 2.g\	.
.	(8ee/L	.	.
.	8bb/	.	.
.	8aa/	.	.
.	8gg#/J)	.	.
=73	=73	=73	=73
2.C#\ 2.B\	4r	2.e#\ 2.g#\	.
.	(8cc#/L	.	.
.	8gg#/	.	.
.	8ff#/	.	.
.	8ee#/J)	.	.
=74	=74	=74	=74
2.C\ 2.c\	4r	2.fn\ 2.a-\	.
.	(8cc/L	.	.
.	8ffn/	.	.
.	8gg/	.	.
.	8aa-/J)	.	.
*	*v	*v	*
=75	=75	=75
4C-/	4d-/ 4fn/ 4a-/	.
4BB-/	4dn/ 4f/ 4a-/	.
8AA/L	4d/ 4f/ 4an/	.
8D/J	.	.
=76	=76	=76
*	*^	*
(4GG/	2.b-/	(4d\ 4fn\	.
2C/)	.	2c\) 2e\	.
*	*v	*v	*
=77!|:	=77!|:	=77!|:
*>D	*>D	*>D
*k[b-]	*k[b-]	*k[b-]
4FF/ 4F/	4c/ 4f/ (4a/	.
4GG/ 4G/	4c/ 4e/ 4b-/	f
4GG#/ 4G#/	4d/ 4f/ 4bn/)	.
=78	=78	=78
4AA\ 4A\	(8cc\	.
.	4ff\ 4aa\)	.
4A\ 4c\ 4f\	.	.
.	(8cc\	.
4A\ 4c\ 4f\	4ff\ 4aa\)	.
=79	=79	=79
*^	*	*
4r	2CC\ 2C\	(8b-\	.
.	.	4ee\ 4gg\)	.
4B-/ 4c/ 4e/	.	.	.
.	.	(8b-\	.
4r	4CC#\ 4C#\	4b-\ 4ee\ 4gg\)	.
=80	=80	=80	=80
4r	2.DD\ 2.D\	2a\ 2dd\ 2ff\	.
4A/ 4d/ 4f/	.	.	.
4A/ 4d/ 4f/	.	4a\ 4aa\	.
*v	*v	*	*
=81	=81	=81
4FF/ 4F/	8a\ 8cc\ 8dd#\ 8aa\	.
.	4a\ 4cc\ 4dd#\ 4aa\	.
4A\ 4c\ 4d#\	.	.
.	8a\ 8cc\ 8dd#\ 8ff\	.
4A\ 4c\ 4d#\	4a\ 4cc\ 4dd#\ 4ff\	.
=82	=82	=82
4EE/ 4E/	8a\ 8cc\ 8ee\ 8aa\	.
.	4a\ 4cc\ 4ee\ 4aa\	.
4A\ 4c\ 4e\	.	.
.	8a\ 8cc\ 8ee\	.
4A\ 4c\ 4e\	4a\ 4cc\ 4ee\	.
=83	=83	=83
4EE/ 4E/	8g#\ 8ee\	.
.	4g#\ 4ee\	.
4G#\ 4d\ 4e\	.	.
.	8g#\ 8ee\	.
4G#\ 4d\ 4e\	4g#\ 4ee\	.
=84	=84	=84
2A\ 2c\ 2e\	(4a/	.
.	4cc\	.
4G\ 4c\ 4e\	4b-\)	.
=85	=85	=85
4FF/ 4F/	4c/ 4f/ (4a/	.
4GG/ 4G/	4c/ 4e/ 4b-/	f
4GG#/ 4G#/	4d/ 4f/ 4bn/)	.
=86	=86	=86
4AA\ 4A\	(8cc\	.
.	4ff\ 4aa\)	.
4A\ 4c\ 4f\	.	.
.	(8cc\	.
4A\ 4c\ 4f\	4ff\ 4aa\)	.
=87	=87	=87
*^	*	*
4r	2CC\ 2C\	(8b-\	.
.	.	4ee\ 4gg\)	.
4B-/ 4c/ 4e/	.	.	.
.	.	(8b-\	.
4r	4CC#\ 4C#\	4b-\ 4ee\ 4gg\)	.
=88	=88	=88	=88
*v	*v	*	*
*>D1	*>D1	*>D1
*^	*	*
4r	2.DD\ 2.D\	2a\ 2dd\ 2ff\	.
4A/ 4d/ 4f/	.	.	.
4r	.	(8aa\L	.
.	.	8bbn\J)	.
=89	=89	=89	=89
*	*	*^	*
4r	2.FF#\ 2.F#\	8ccc/	(2.dd#\	.
.	.	4aa/)	.	.
4A/ 4c/ 4d#/	.	.	.	.
.	.	8ccc/	.	.
4A/ 4c/ 4d#/	.	4aa/	.	.
=90	=90	=90	=90	=90
4r	2.GG\ 2.G\	8ccc/	2.ee\	.
.	.	4gg/	.	.
4G/ 4c/ 4e/	.	.	.	.
.	.	8ccc/	.	.
4G/ 4c/ 4e/	.	4gg/	.	.
*v	*v	*	*	*
=91	=91	=91	=91
4GG/ 4G/	8gg/	2bn\ 2ff\	.
.	4gg/	.	.
4G\ 4Bn\ 4f\	.	.	.
.	8gg/	.	.
4G\ 4B\ 4f\	4gg/	4b\ 4ff\	.
*	*v	*v	*
=92	=92	=92
4CC/ 4C/	8cc\ 8ee\ (8ccc\L	.
.	8bb-\	.
2G\ 2B-\ 2c\ 2e\	8gg\	.
.	8ee\	.
.	8cc\	.
.	8b-\J)	.
=93:|!	=93:|!	=93:|!
*>D2	*>D2	*>D2
*^	*	*
4r	2.DD\ 2.D\	2a\ 2dd\ 2ff\	.
4A/ 4d/ 4f/	.	.	.
4r	.	(8dd\L	.
.	.	8ee\J)	.
=94	=94	=94	=94
*v	*v	*	*
*>F	*>F	*>F
*^	*	*
4r	2BBB-\ 2BB-\	8f\ 8ff\	.
.	.	4b-\ 4dd\	.
4F/ 4B-/ 4d/	.	.	.
.	.	8f\ 8ff\	.
4r	4BBBn\ 4BBn\	4f/ 4g#/ 4dd/	.
=95	=95	=95	=95
4r	2CC\ 2C\	8f/ 8a/ 8dd/	.
.	.	4f/ 4a/ 4cc/	.
4F/ 4A/ 4c/	.	.	.
.	.	8f/ 8a/ 8dd/	.
4r	4DD\ 4D\	4c/ 4f#/ 4a/	.
=96	=96	=96	=96
*	*	*^	*
4r	2GGG\ 2GG\	8a/	2Bn\ 2f\	.
.	.	4f/	.	.
4D/ 4F/ 4G/	.	.	.	.
.	.	8a/	.	.
4r	4CC\ 4C\	4g/	4B-\ 4e\	.
=97	=97	=97	=97	=97
4r	2.FF\ 2.F\	4f/	4A\ 4c\	.
4B-/ (4d-/	.	(8f/L	4r	.
.	.	8ff/J	.	.
4A/ 4c/)	.	4ff/)	4r	.
*v	*v	*	*	*
*	*v	*v	*
=98	=98	=98
2.G#\ 2.Bn\ 2.d\	(8ff\L	.
.	8ee\	.
.	8ff\	.
.	8ee\	.
.	8ee-\	.
.	8dd\J)	.
=99	=99	=99
2.G\ 2.B-\ 2.d-\	(8ee\L	.
.	8dd#\	.
.	8ee\	.
.	8dd#\	.
.	8ddn\	.
.	8dd-\J)	.
=100	=100	=100
2.F#\ 2.A\ 2.c\	(8ee-\L	.
.	8dd\	.
.	8ee-\	.
.	8dd\	.
.	8dd-\	.
.	8cc\J)	.
=101	=101	=101
*^	*	*
2A#/	4F#\	2cc#\	.
.	4FF#\	.	.
4r;	4r	4r;	.
*v	*v	*	*
=102!|:	=102!|:	=102!|:
*>G	*>G	*>G
*k[f#c#]	*k[f#c#]	*k[f#c#]
4BBB/ 4BB/	8dd\	p
.	4b\	.
4F#\ 4B\ 4d\	.	.
.	8ff#\	.
4F#\ 4B\ 4d\	4dd\	.
=103	=103	=103
4BBB/ 4BB/	(8bb\L	.
.	8ff#\	.
4F#\ 4B\ 4d\	8dd\)	.
.	[8b\J	.
4F#\ 4B\ 4d\	4b\]	.
=104	=104	=104
4FFF#/ 4FF#/	8a#/	.
.	4ff#\	.
4F#\ 4A#\ 4e\	.	.
.	8gg\	.
4F#\ 4A#\ 4e\	4ff#\	.
=105	=105	=105
4BBB/ 4BB/	8b\	.
.	4ff#\	.
4F#\ 4B\ 4d\	.	.
.	8gg\	.
4F#\ 4B\ 4d\	4ff#\	.
=106	=106	=106
4BBB/ 4BB/	8dd\	.
.	4b\	.
4F#\ 4B\ 4d\	.	.
.	8ff#\	.
4F#\ 4B\ 4d\	4dd\	.
=107	=107	=107
4BBB/ 4BB/	(8bb\L	.
.	8ff#\	.
4F#\ 4B\ 4d\	8dd\)	.
.	8b\J	.
4F#\ 4B\ 4d\	8b\L	.
.	8dd\J	.
=108	=108	=108
4GG/ 4G/	8b\ 8dd\	.
.	4b\ 4dd\	<
4GG/ 4G/	.	.
.	8b\ 8dd\	.
4GG/ 4G/	8b\ 8cc#\ 8ee\L	.
.	8b\ 8cc#\ 8ee#\J	.
=109	=109	=109
4FF#/ 4F#/	4a#\ 4cc#\ 4ff#\	f
4C#/	4c#/	.
EE#q\	E#q/	.
4FF#\	4F#/	.
=110	=110	=110
4BBB/ 4BB/	8dd\	p
.	4b\	.
4F#\ 4B\ 4d\	.	.
.	8ff#\	.
4F#\ 4B\ 4d\	4dd\	.
=111	=111	=111
4BBB/ 4BB/	(8bb\L	.
.	8ff#\	.
4F#\ 4B\ 4d\	8dd\)	.
.	[8b\J	.
4F#\ 4B\ 4d\	4b\]	.
=112	=112	=112
4FFF#/ 4FF#/	8a#/	.
.	4ff#\	.
4F#\ 4A#\ 4e\	.	.
.	8gg\	.
4F#\ 4A#\ 4e\	4ff#\	.
=113	=113	=113
4BBB/ 4BB/	8b\	.
.	4ff#\	.
4F#\ 4B\ 4d\	.	.
.	8gg\	.
4F#\ 4B\ 4d\	8ff#\L	.
.	8bb\J	.
=114	=114	=114
4EE/ 4E/	8bb\	.
.	4gg\	.
4G\ 4B\ 4e\	.	.
.	8aa\	.
4G\ 4B\ 4e\	8gg\L	.
.	8ff#\J	.
=115	=115	=115
4BBB/ 4BB/	8ff#\	.
.	4dd\	.
4F#\ 4B\ 4d\	.	.
.	8ee\	.
4F#\ 4B\ 4d\	8dd\L	.
.	8cc#\J	.
=116	=116	=116
4FFF#/ 4FF#/	8cc#\	.
.	4a#/	.
4F#\ 4A#\ 4e\	.	.
.	8gg\	.
4F#\ 4A#\ 4e\	4ff#\	.
=117	=117	=117
*>G1	*>G1	*>G1
4B\ 4d\	4b\	.
4GG/ 4G/	4g/	.
4FF#/ 4F#/	4f#/	.
=118:|!	=118:|!	=118:|!
*>G2	*>G2	*>G2
4B\ 4d\	4b\	.
4BB\ 4B\	4d/ 4e#/ 4g#/ 4dd/	.
4AA\ 4A\	4d/ 4f#/ 4a/ 4ccn/	.
=119!|:	=119!|:	=119!|:
*>H	*>H	*>H
*	*^	*
4GG/ 4G/	8b/	2d\ 2g\ 2b\	mf
.	4dd/	.	.
4EE/ 4E/	.	.	.
.	8b/	.	.
4EE#/ 4E/	4dd/	4d\ 4g#\	.
=120	=120	=120	=120
4FF#/ 4F#/	4.a/	4.d\	.
4F#\ 4A\	.	.	.
.	(8a/L	8r	<
4F#\ 4A\	8dd/	4r	.
.	8ff#/J)	.	.
=121	=121	=121	=121
4AAA/ 4AA/	8aa/	2.a\ 2.cc#\	f
.	4gg/	.	.
4G\ 4A\ 4c#\	.	.	.
.	8gg/	.	.
4G\ 4A\ 4c#\	8ff#/L	.	.
.	8ee/J	.	.
*	*v	*v	*
=122	=122	=122
4DD/ 4D/	8a\ 8dd\ 8ff#\L	.
.	8dd\J	.
4F#\ 4A\ 4d\	4a/	.
4AA\ 4A\	4d/ 4f#/ 4ccn/	.
=123	=123	=123
*	*^	*
4GG/ 4G/	8b/	2d\ 2g\ 2b\	mf
.	4dd/	.	.
4EE/ 4E/	.	.	.
.	8b/	.	.
4EE#/ 4E/	4dd/	4d\ 4g#\	.
=124	=124	=124	=124
*^	*	*	*
4r	2.FF#\ 2.F#\	2a/	2.d\	<
4F#/ 4A/	.	.	.	.
4F#/ 4A/	.	4dd/	.	.
*v	*v	*	*	*
*	*v	*v	*
=125	=125	=125
2G\ 2A#\ 2e\	(8cc#\L	f
.	8b#\	.
.	8cc#\	.
.	8b#\	.
4F#\ 4A#\ 4e\	8cc#\	.
.	8ff#\J)	.
=126	=126	=126
4B\ 4d\	4b/	.
4BB\ 4B\	4d/ 4e#/ 4g#/ 4dd/	>
4AA\ 4A\	4d/ 4f#/ 4a/ 4ccn/	.
=127	=127	=127
*	*^	*
4GG/ 4G/	8b/	2d\ 2g\ 2b\	mf
.	4dd/	.	.
4EE/ 4E/	.	.	.
.	8b/	.	.
4EE#/ 4E/	4dd/	4d\ 4g#\	.
=128	=128	=128	=128
4FF#/ 4F#/	4.a/	4.d\	.
4F#\ 4A\	.	.	.
.	(8a/L	8r	<
4F#\ 4A\	8dd/	4r	.
.	8ff#/J)	.	.
=129	=129	=129	=129
4AAA/ 4AA/	8aa/	2.a\ 2.cc#\	f
.	4gg/	.	.
4G\ 4A\ 4c#\	.	.	.
.	8gg/	.	.
4G\ 4A\ 4c#\	8ff#/L	.	.
.	8ee/J	.	.
=130	=130	=130	=130
4DD/ 4D/	4.ff#/	2a\ 2dd\	.
4F#\ 4A\ 4d\	.	.	.
.	(8dd/L	.	.
4AA\ 4A\	8ff#/	4dd\	.
.	8aa/J)	.	.
=131	=131	=131	=131
4GG/ 4G/	8bb/	2dd\ 2gg\	.
.	4ddd/	.	.
4BB\ 4B\	.	.	.
.	8ddd/	.	.
4BB-\ 4B-\	4eee/	4gg\	.
=132	=132	=132	=132
4AA\ 4A\	(8ddd/L	2ff#\	.
.	8aa/J)	.	.
4F#\ 4A\ 4d\	4.ff#/	.	.
4F#\ 4A\ 4d\	.	4r	.
.	8ff#/	.	.
=133	=133	=133	=133
*	*v	*v	*
*>H1	*>H1	*>H1
*	*^	*
4AAA/ 4AA/	8aa/	2a\ 2cc#\	.
.	4gg/	.	.
4G\ 4A\ 4c#\	.	.	.
.	8gg/	.	.
4G\ 4A\ 4c#\	8ff#/L	8a\ 8cc#\L	.
.	8ee/J	8g\ 8cc#\J	.
*	*v	*v	*
=134	=134	=134
4DD/ 4D/	2f#/ 2a/ 2dd/	.
4F#\ 4A\ 4d\	.	.
4AA\ 4A\	4d/ 4f#/ 4ccn/	.
=135:|!	=135:|!	=135:|!
*>H2	*>H2	*>H2
*	*^	*
(4AA/	8aa/	2a\ 2cc#\	f
.	4gg/	.	.
4A\)	.	.	.
.	8ee/	.	.
4B-\	4cc#/	4e\ 4g\	.
*	*v	*v	*
=136	=136	=136
(8A\L	2.d#/ 2.f#/ 2.ccn/	f
8G#\	.	.
8A\	.	.
8G#\	.	.
8Gn\	.	.
8F#\J)	.	.
=137	=137	=137
(8G#\L	2.d/ 2.fn/ 2.b/	f
8F##\	.	.
8G#\	.	.
8F##\	.	.
8F#\	.	.
8Fn\J)	.	.
=138	=138	=138
(8G\L	2.c#/ 2.e/ 2.b-/	f
8F#\	.	.
8G\	.	.
8F#\	.	.
8Fn\	.	.
8E\J)	.	.
=139	=139	=139
4EE/ 4E/	4c#/ 4g/ 4b-/	ff
2EE-/ 2E-/	2cn/ 2g/ 2a/	ff
=140	=140	=140
2.DD/ 2.D/	2.cn/ 2.f#/ 2.a/	ff
=141	=141	=141
*>I	*>I	*>I
*k[f#]	*k[f#]	*k[f#]
*	*^	*
4GG/	8a/	2.B\ 2.d\	mf
.	4g/	.	.
4D/ 4G/	.	.	.
.	8b/	.	.
4D/ 4G/	4a/	.	.
=142	=142	=142	=142
4EE/ 4E/	8a/	2.c#\ 2.g\	.
.	4g/	.	.
4E/ 4G/ 4A/	.	.	.
.	8b/	.	.
4E/ 4G/ 4A/	4a/	.	.
=143	=143	=143	=143
*^	*	*	*
4r	2DD\ 2D\	8a/	2c\ 2f#\	.
.	.	4cc/	.	.
4F#/ 4A/	.	.	.	.
.	.	8b/	.	.
4r	4DD#\ 4D#\	4a/	4c\ 4f#\	.
*v	*v	*	*	*
=144	=144	=144	=144
4EE/ 4E/	2.g/	2.B\ 2.e\	.
4E/ 4G/	.	.	.
4E/ 4G/	.	.	.
=145	=145	=145	=145
4CC/ 4C/	8ee/	2cc\	.
.	4aa/	.	.
4E/ 4G/ 4c/	.	.	.
.	8ee/	.	.
4E/ 4G/ 4c/	4gg/	4cc\	.
=146	=146	=146	=146
4DD/ 4D/	8b/	2g\	.
.	4ee/	.	.
4D/ 4G/ 4B/	.	.	.
.	8b/	.	.
4D/ 4G/ 4B/	4dd/	4g\ 4b\	.
=147	=147	=147	=147
4AAA/ 4AA/	8g/	2c#\	.
.	4b/	.	.
4E/ 4G/ 4A/	.	.	.
.	8g/	.	.
4AAA/ 4AA/	4b/	4c#\ 4g\	.
=148	=148	=148	=148
*^	*	*	*
4r	2.DD\ 2.D\	2.f#/ 2.a/	2.c\	.
4D/ 4F#/ 4A/	.	.	.	.
4D/ 4F#/ 4A/	.	.	.	.
*v	*v	*	*	*
=149	=149	=149	=149
4GG/	8a/	2.B\ 2.d\	.
.	4g/	.	.
4D/ 4G/	.	.	.
.	8b/	.	.
4D/ 4G/	4a/	.	.
=150	=150	=150	=150
4EE/ 4E/	8a/	2.c#\ 2.g\	.
.	4g/	.	.
4E/ 4G/ 4A/	.	.	.
.	8b/	.	.
4E/ 4G/ 4A/	4a/	.	.
=151	=151	=151	=151
*^	*	*	*
4r	2DD\ 2D\	8a/	2c\ 2f#\	.
.	.	4cc/	.	.
4F#/ 4A/	.	.	.	.
.	.	8b/	.	.
4r	4DD#\ 4D#\	4a/	4c\ 4f#\	.
*v	*v	*	*	*
=152	=152	=152	=152
4EE/ 4E/	2.g/	2.B\ 2.e\	.
4E/ 4G/	.	.	.
4E/ 4G/	.	.	.
=153	=153	=153	=153
4CC/ 4C/	8ee/	2cc\	.
.	4aa/	.	.
4E/ 4G/ 4c/	.	.	.
.	8ee/	.	.
4E/ 4G/ 4c/	4gg/	4cc\	.
=154	=154	=154	=154
4DD/ 4D/	8b/	2g\	.
.	4ee/	.	.
4D/ 4G/ 4B/	.	.	.
.	8b/	.	.
4D/ 4G/ 4B/	(8dd/L	4r	mp
.	8d/J)	.	.
=155	=155	=155	=155
4EE/ 4E/	8c#/	(4.c#\	.
.	4g/ 4b/)	.	.
4AAA/ 4AA/	.	.	.
.	(8cn/	8cn\	.
4DD;/ 4D;/	4f#;/ 4a;/)	4c;\	.
=156	=156	=156	=156
*^	*	*	*
(4D/	2.GG\	(8a/	4B\	p
.	.	4g/	.	.
4E/	.	.	&(2c\&)	.
.	.	8b/	.	.
4E-/	.	4a/)	.	.
=157	=157	=157	=157	=157
4D/)	4GG\	4g/	&(4B\&)	.
4r	4r	(4gg/	4r	.
4r	4r	4aa/)	4r	.
=158	=158	=158	=158	=158
(4d/	2.G\	8aa/	(4b\	.
.	.	4gg/	.	.
4e/	.	.	(2cc\)	.
.	.	8bb/	.	.
4e-/	.	&(4aa/&)	.	.
=159	=159	=159	=159	=159
4d/)	4G\	4gg/	4b\)	.
4r	4r	4ggg/	4r	.
4r	4r	4ggg/	4r	.
*v	*v	*	*	*
=160	=160	=160	=160
2.r	8aa/	2.g\ 2.b\ 2.dd\	f
.	4gg/	.	.
.	8bb/	.	.
.	4aa/	.	.
*	*v	*v	*
=161	=161	=161
2.G\ 2.B\ 2.d\	8a/	f
.	4g/	.
.	8b/	.
.	4a/	.
=162	=162	=162
2.GG/ 2.BB/ 2.D/	8A/	f
.	4G/	.
.	8B/	.
.	4A/	.
=163	=163	=163
4GG/ 4BB/ 4D/	4G/	f
2EEE-/ 2EE-/	2G;/ 2B-;/ 2e-;/ 2g;/	.
=164	=164	=164
2.GGG/ 2.GG/	2.G/ 2.B/ 2.d/ 2.g/	f
==	==	==
*-	*-	*-
!!!ENC: Craig Stuart Sapp
!!!END: 2004/11/28/
!!!EEV: 2012/05/23/
